packages/icons/src/progress-dial.svg

<svg viewBox="0 0 29 18" fill="currentColor" xmlns="http://www.w3.org/2000/svg">
<path d="M28.333 14C28.3313 11.3278 27.5569 8.7131 26.103 6.47102L24.659 7.91602C25.7547 9.75627 26.333 11.8583 26.333 14H28.333ZM26.333 3.41403L24.919 2.00004L16.352 10.567C15.7423 10.1996 15.0448 10.0037 14.333 10C13.5419 10 12.7685 10.2346 12.1107 10.6741C11.4529 11.1137 10.9402 11.7384 10.6375 12.4693C10.3347 13.2002 10.2555 14.0044 10.4099 14.7804C10.5642 15.5563 10.9452 16.269 11.5046 16.8284C12.064 17.3878 12.7767 17.7688 13.5526 17.9231C14.3286 18.0775 15.1328 17.9983 15.8637 17.6955C16.5946 17.3928 17.2193 16.8801 17.6589 16.2223C18.0984 15.5645 18.333 14.7911 18.333 14C18.3294 13.2879 18.1335 12.59 17.766 11.98L26.333 3.41403ZM14.333 16C13.9374 16 13.5508 15.8827 13.2219 15.6629C12.893 15.4432 12.6366 15.1308 12.4852 14.7654C12.3339 14.3999 12.2943 13.9978 12.3714 13.6098C12.4486 13.2219 12.6391 12.8655 12.9188 12.5858C13.1985 12.3061 13.5549 12.1156 13.9428 12.0384C14.3308 11.9613 14.7329 12.0009 15.0984 12.1523C15.4638 12.3036 15.7762 12.56 15.9959 12.8889C16.2157 13.2178 16.333 13.6044 16.333 14C16.3325 14.5303 16.1216 15.0387 15.7466 15.4136C15.3717 15.7886 14.8633 15.9995 14.333 16ZM14.333 2.00004C16.4743 2.00101 18.5757 2.57931 20.416 3.67403L21.87 2.22103C19.757 0.86221 17.3168 0.0980026 14.8062 0.00881312C12.2956 -0.0803764 9.80733 0.508749 7.60324 1.71421C5.39915 2.91967 3.56069 4.6969 2.2813 6.85892C1.00191 9.02093 0.328886 11.4878 0.333027 14H2.33302C2.33673 10.8186 3.6022 7.76847 5.85183 5.51884C8.10145 3.26921 11.1515 2.00374 14.333 2.00004Z" fill="currentColor"/>
</svg>

<svg viewBox="0 0 29 18" fill="currentColor" xmlns="http://www.w3.org/2000/svg"><path d="M28.333 14a13.854 13.854 0 0 0-2.23-7.529l-1.444 1.445A11.892 11.892 0 0 1 26.333 14h2Zm-2-10.586L24.919 2l-8.567 8.567A3.951 3.951 0 0 0 14.333 10a4 4 0 1 0 4 4 3.953 3.953 0 0 0-.567-2.02l8.567-8.566ZM14.333 16a2 2 0 1 1 0-4 2 2 0 0 1 0 4Zm0-14c2.141.001 4.243.58 6.083 1.674l1.454-1.453A13.977 13.977 0 0 0 .333 14h2a12.014 12.014 0 0 1 12-12Z"/></svg>
